communes/661.svg

<?xml version="1.0" encoding="UTF-8" standalone="no"?>
<svg
   xmlns:dc="http://purl.org/dc/elements/1.1/"
   xmlns:cc="http://creativecommons.org/ns#"
   xmlns:rdf="http://www.w3.org/1999/02/22-rdf-syntax-ns#"
   xmlns:svg="http://www.w3.org/2000/svg"
   xmlns="http://www.w3.org/2000/svg"
   xmlns:xlink="http://www.w3.org/1999/xlink"
   xmlns:sodipodi="http://sodipodi.sourceforge.net/DTD/sodipodi-0.dtd"
   xmlns:inkscape="http://www.inkscape.org/namespaces/inkscape"
   height="763"
   width="603"
   version="1.0"
   id="svg20"
   sodipodi:version="0.32"
   inkscape:version="0.46"
   sodipodi:docname="Clavaleyères-coat of arms.svg"
   sodipodi:docbase="C:\Users\Camilo\Documents\Escudos de Suiza"
   inkscape:output_extension="org.inkscape.output.svg.inkscape">
  <metadata
     id="metadata31">
    <rdf:RDF>
      <cc:Work
         rdf:about="">
        <dc:format>image/svg+xml</dc:format>
        <dc:type
           rdf:resource="http://purl.org/dc/dcmitype/StillImage" />
        <dc:date>06-AUG-2009</dc:date>
        <dc:creator>
          <cc:Agent>
            <dc:title>Juan G (aliman5040)</dc:title>
          </cc:Agent>
        </dc:creator>
        <cc:license
           rdf:resource="http://creativecommons.org/licenses/GPL/2.0/" />
        <dc:coverage />
        <dc:description />
        <dc:subject>
          <rdf:Bag />
        </dc:subject>
        <dc:language />
        <dc:title>Wappen Gemeinde Clavaleyères</dc:title>
      </cc:Work>
      <cc:License
         rdf:about="http://creativecommons.org/licenses/GPL/2.0/">
        <cc:permits
           rdf:resource="http://web.resource.org/cc/Reproduction" />
        <cc:permits
           rdf:resource="http://web.resource.org/cc/Distribution" />
        <cc:requires
           rdf:resource="http://web.resource.org/cc/Notice" />
        <cc:permits
           rdf:resource="http://web.resource.org/cc/DerivativeWorks" />
        <cc:requires
           rdf:resource="http://web.resource.org/cc/ShareAlike" />
        <cc:requires
           rdf:resource="http://web.resource.org/cc/SourceCode" />
      </cc:License>
    </rdf:RDF>
  </metadata>
  <defs
     id="defs29">
    <inkscape:perspective
       sodipodi:type="inkscape:persp3d"
       inkscape:vp_x="0 : 381.5 : 1"
       inkscape:vp_y="0 : 1000 : 0"
       inkscape:vp_z="603 : 381.5 : 1"
       inkscape:persp3d-origin="301.5 : 254.33333 : 1"
       id="perspective5149" />
    <linearGradient
       id="linearGradient2893">
      <stop
         style="stop-color:#ffffff;stop-opacity:0.3137255;"
         offset="0"
         id="stop2895" />
      <stop
         id="stop2897"
         offset="0.19"
         style="stop-color:#ffffff;stop-opacity:0.25098041;" />
      <stop
         style="stop-color:#6b6b6b;stop-opacity:0.1254902;"
         offset="0.60000002"
         id="stop2901" />
      <stop
         style="stop-color:#000000;stop-opacity:0.1254902;"
         offset="1"
         id="stop2899" />
    </linearGradient>
    <radialGradient
       inkscape:collect="always"
       xlink:href="#linearGradient2893"
       id="radialGradient3236"
       gradientUnits="userSpaceOnUse"
       gradientTransform="matrix(1.215027,1.531577e-24,1.464684e-23,1.266667,-839.1924,-490.4894)"
       cx="858.04236"
       cy="579.93323"
       fx="858.04236"
       fy="579.93323"
       r="300" />
    <inkscape:perspective
       id="perspective5197"
       inkscape:persp3d-origin="372.04724 : 350.78739 : 1"
       inkscape:vp_z="744.09448 : 526.18109 : 1"
       inkscape:vp_y="0 : 1000 : 0"
       inkscape:vp_x="0 : 526.18109 : 1"
       sodipodi:type="inkscape:persp3d" />
    <inkscape:perspective
       id="perspective2458"
       inkscape:persp3d-origin="372.04724 : 350.78739 : 1"
       inkscape:vp_z="744.09448 : 526.18109 : 1"
       inkscape:vp_y="0 : 1000 : 0"
       inkscape:vp_x="0 : 526.18109 : 1"
       sodipodi:type="inkscape:persp3d" />
    <inkscape:perspective
       id="perspective5829"
       inkscape:persp3d-origin="372.04724 : 350.78739 : 1"
       inkscape:vp_z="744.09448 : 526.18109 : 1"
       inkscape:vp_y="0 : 1000 : 0"
       inkscape:vp_x="0 : 526.18109 : 1"
       sodipodi:type="inkscape:persp3d" />
    <inkscape:perspective
       id="perspective5955"
       inkscape:persp3d-origin="372.04724 : 350.78739 : 1"
       inkscape:vp_z="744.09448 : 526.18109 : 1"
       inkscape:vp_y="0 : 1000 : 0"
       inkscape:vp_x="0 : 526.18109 : 1"
       sodipodi:type="inkscape:persp3d" />
  </defs>
  <sodipodi:namedview
     inkscape:window-height="720"
     inkscape:window-width="1280"
     inkscape:pageshadow="2"
     inkscape:pageopacity="0.0"
     guidetolerance="10.0"
     gridtolerance="10.0"
     objecttolerance="10.0"
     borderopacity="1.0"
     bordercolor="#666666"
     pagecolor="#ffffff"
     id="base"
     inkscape:zoom="0.47867257"
     inkscape:cx="379.44239"
     inkscape:cy="461.80127"
     inkscape:window-x="-8"
     inkscape:window-y="-8"
     inkscape:current-layer="layer2"
     showgrid="true"
     showguides="true"
     inkscape:guide-bbox="true">
    <inkscape:grid
       type="xygrid"
       id="grid5151" />
  </sodipodi:namedview>
  <g
     inkscape:groupmode="layer"
     id="layer1"
     inkscape:label="Fond écu"
     style="display:inline"
     sodipodi:insensitive="true">
    <path
       id="path1899"
       d="M 1.5,1.49998 L 1.5,460.3679 C 1.5,626.6785 135.81456,761.5 301.49999,761.5 C 467.18543,761.5 601.5,626.6785 601.5,460.3679 L 601.5,1.49998 L 1.5,1.49998 z"
       style="fill:#e20909;fill-opacity:1" />
  </g>
  <g
     inkscape:groupmode="layer"
     id="layer2"
     inkscape:label="Meubles"
     style="display:inline"
     sodipodi:insensitive="true">
    <g
       id="g6036">
      <path
         sodipodi:nodetypes="ccccccccc"
         id="path5987"
         d="M 517.2199,504.21986 C 435.5808,636.94283 341.47522,474.92908 236.86529,462.37589 L 236.86529,240.60284 C 276.29072,247.25703 312.18444,274.07801 349.84401,295 M 349.84401,295 C 328.92203,106.70213 308.00004,106.70213 412.60997,2.0921956 L 600.90784,2.0921956 L 600.90784,274.07801 C 539.83129,364.29797 546.98745,456.71574 517.2199,504.21986"
         style="fill:#000000;fill-opacity:1;fill-rule:evenodd;stroke:#000000;stroke-width:4.18439722;stroke-miterlimit:4;stroke-dasharray:none;stroke-opacity:1" />
      <g
         transform="matrix(4.1843972,0,0,4.1843972,-2621.078,-2395.5674)"
         id="g6001">
        <path
           style="opacity:1;fill:#fcef3c;fill-opacity:1;fill-rule:evenodd;stroke:#000000;stroke-width:1;stroke-miterlimit:4;stroke-dasharray:none;stroke-opacity:1"
           d="M 670,583 C 670,698 670,702 670,702 L 684,702 L 684,583 L 670,583 L 670,583 z"
           id="path5989"
           sodipodi:nodetypes="cccccc" />
        <path
           style="opacity:1;fill:#fcef3c;fill-opacity:1;fill-rule:evenodd;stroke:#000000;stroke-width:1;stroke-miterlimit:4;stroke-dasharray:none;stroke-opacity:1"
           d="M 676.56683,718 C 690.58405,735.00037 706.78276,713 692.27907,703 C 683.66546,728 661.29066,693 692.27907,693 C 720,693 720,738 676.56683,738 C 633.13366,738 632.64975,693 660,693 C 692.5326,693.01982 667.50368,727.68336 660,703 C 645,713 663.33157,734.63585 676.56683,718 z"
           id="path5991"
           sodipodi:nodetypes="ccczccc" />
        <path
           style="opacity:1;fill:#fcef3c;fill-opacity:1;fill-rule:evenodd;stroke:#000000;stroke-width:1;stroke-miterlimit:4;stroke-dasharray:none;stroke-opacity:1"
           d="M 670,591.86495 L 659.1559,591.86495 L 659.02533,583 L 630,583 L 630,608 L 640,608 L 640,598 L 645,598 L 645,608 L 655,608 L 655,613 L 645,613 L 645,623 L 640,623 L 640,613 L 630,613 L 630,638 L 660,638 L 660,628 L 670,628 L 670,591.86495 z"
           id="path5993"
           sodipodi:nodetypes="ccccccccccccccccccccc" />
      </g>
      <path
         sodipodi:nodetypes="cccccscccccccccc"
         id="path5995"
         d="M 182.46812,238.75354 C 150.29258,256.50158 140.62415,274.07801 161.54614,305.40881 C 148.02489,308.92166 140.62415,336.84397 161.54614,350.11701 C 136.18317,360.85032 151.07602,386.71776 161.54614,393.05369 C 146.92046,406.20872 148.99169,429.0729 161.54614,435.44402 C 140.28007,463.08083 161.54932,483.05401 182.46812,483.29787 C 199.2717,483.49375 206.61277,473.37035 213.40823,462.37589 C 199.26496,461.14672 182.67006,463.59505 182.46812,441.4539 C 201.11279,444.9308 214.5599,434.92348 218.3254,420.53192 C 202.51674,420.41341 185.59609,422.27187 182.46812,399.60993 C 200.42019,409.3979 214.43909,391.82963 224.3121,378.68794 C 210.22921,378.45609 195.25075,386.4546 182.46812,364.41505 C 198.33197,365.28289 214.14167,365.86662 224.3121,336.84397 C 212.9094,340.74898 190.98174,336.99444 182.46812,315.92199 C 196.84885,317.99816 211.34164,321.75491 224.3121,302.67699 C 178.22217,290.71597 180.28805,259.57113 182.46812,238.75354 z"
         style="fill:#000000;fill-opacity:1;fill-rule:evenodd;stroke:#000000;stroke-width:4.18439722;stroke-miterlimit:4;stroke-dasharray:none;stroke-opacity:1" />
      <path
         sodipodi:nodetypes="csc"
         id="path5997"
         d="M 511.21002,518.93065 C 530.94577,420.53192 427.7813,402.13241 370.766,357.76596 C 330.34489,326.3123 307.8245,285.29555 274.31167,281.72697"
         style="fill:none;fill-opacity:1;fill-rule:evenodd;stroke:#e20909;stroke-width:4.18439722;stroke-miterlimit:4;stroke-dasharray:none;stroke-opacity:1" />
      <path
         sodipodi:nodetypes="cc"
         id="path5999"
         d="M 338.8952,282.81968 C 372.9391,306.24614 396.86121,316.51678 433.53196,315.92199"
         style="fill:none;fill-opacity:1;fill-rule:evenodd;stroke:#e20909;stroke-width:4.18439722;stroke-miterlimit:4;stroke-dasharray:none;stroke-opacity:1" />
    </g>
  </g>
  <g
     inkscape:groupmode="layer"
     id="layer3"
     inkscape:label="Reflet final"
     style="display:inline"
     sodipodi:insensitive="true">
    <path
       style="fill:url(#radialGradient3236);fill-opacity:1"
       d="M 1.5,1.5 L 1.5,460.3679 C 1.5,626.67854 135.81454,761.5 301.49993,761.5 C 467.1854,761.5 601.5,626.67854 601.5,460.3679 L 601.5,1.5 L 1.5,1.5 z "
       id="path2346" />
  </g>
  <g
     inkscape:groupmode="layer"
     id="layer4"
     inkscape:label="Contour final"
     style="display:inline"
     sodipodi:insensitive="true">
    <path
       style="fill:none;fill-opacity:1;stroke:#000000;stroke-width:3;stroke-miterlimit:4;stroke-dasharray:none;stroke-opacity:1"
       d="M 1.5,1.5 L 1.5,460.36794 C 1.5,626.67854 135.81454,761.5 301.49993,761.5 C 467.1854,761.5 601.5,626.67854 601.5,460.36794 L 601.5,1.5 L 1.5,1.5 z"
       id="path3239" />
  </g>
</svg>

<?xml version="1.0" encoding="UTF-8"?>
<svg version="1.0" viewBox="0 0 603 763" xmlns="http://www.w3.org/2000/svg" xmlns:cc="http://creativecommons.org/ns#" xmlns:dc="http://purl.org/dc/elements/1.1/" xmlns:rdf="http://www.w3.org/1999/02/22-rdf-syntax-ns#" xmlns:xlink="http://www.w3.org/1999/xlink">
<metadata>
<rdf:RDF>
<cc:Work rdf:about="">
<dc:format>image/svg+xml</dc:format>
<dc:type rdf:resource="http://purl.org/dc/dcmitype/StillImage"/>
<dc:date>06-AUG-2009</dc:date>
<dc:creator>
<cc:Agent>
<dc:title>Juan G (aliman5040)</dc:title>
</cc:Agent>
</dc:creator>
<cc:license rdf:resource="http://creativecommons.org/licenses/GPL/2.0/"/>
<dc:coverage/>
<dc:description/>
<dc:subject>
<rdf:Bag/>
</dc:subject>
<dc:language/>
<dc:title>Wappen Gemeinde Clavaleyères</dc:title>
</cc:Work>
<cc:License rdf:about="http://creativecommons.org/licenses/GPL/2.0/">
<cc:permits rdf:resource="http://web.resource.org/cc/Reproduction"/>
<cc:permits rdf:resource="http://web.resource.org/cc/Distribution"/>
<cc:requires rdf:resource="http://web.resource.org/cc/Notice"/>
<cc:permits rdf:resource="http://web.resource.org/cc/DerivativeWorks"/>
<cc:requires rdf:resource="http://web.resource.org/cc/ShareAlike"/>
<cc:requires rdf:resource="http://web.resource.org/cc/SourceCode"/>
</cc:License>
</rdf:RDF>
</metadata>
<defs>
<radialGradient id="a" cx="858.04" cy="579.93" r="300" gradientTransform="matrix(1.215 1.5316e-24 1.4647e-23 1.2667 -839.19 -490.49)" gradientUnits="userSpaceOnUse">
<stop stop-color="#fff" stop-opacity=".31373" offset="0"/>
<stop stop-color="#fff" stop-opacity=".25098" offset=".19"/>
<stop stop-color="#6b6b6b" stop-opacity=".12549" offset=".6"/>
<stop stop-opacity=".12549" offset="1"/>
</radialGradient>
</defs>
<g>
<path d="m1.5 1.5v458.87c0 166.31 134.31 301.13 300 301.13 165.69 0 300-134.82 300-301.13v-458.87h-600z" fill="#e20909"/>
<g>
<path d="m517.22 504.22c-81.639 132.72-175.74-29.291-280.35-41.844v-221.77c39.425 6.6542 75.319 33.475 112.98 54.397-20.922-188.3-41.844-188.3 62.766-292.91h188.3v271.99c-61.077 90.22-53.92 182.64-83.688 230.14" fill-rule="evenodd" stroke="#000" stroke-width="4.1844"/>
<g transform="matrix(4.1844 0 0 4.1844 -2621.1 -2395.6)" fill="#fcef3c" fill-rule="evenodd" stroke="#000">
<path d="m670 583v119h14v-119h-14z"/>
<path d="m676.57 718c14.017 17 30.216-5 15.712-15-8.6136 25-30.988-10 0-10 27.721 0 27.721 45-15.712 45s-43.917-45-16.567-45c32.533 0.01982 7.5037 34.683 0 10-15 10 3.3316 31.636 16.567 15z"/>
<path d="m670 591.86h-10.844l-0.13057-8.865h-29.025v25h10v-10h5v10h10v5h-10v10h-5v-10h-10v25h30v-10h10v-36.135z"/>
</g>
<path d="m182.47 238.75c-32.176 17.748-41.844 35.324-20.922 66.655-13.521 3.5128-20.922 31.435 0 44.708-25.363 10.733-10.47 36.601 0 42.937-14.626 13.155-12.554 36.019 0 42.39-21.266 27.637 0.00318 47.61 20.922 47.854 16.804 0.19588 24.145-9.9275 30.94-20.922-14.143-1.2292-30.738 1.2192-30.94-20.922 18.645 3.4769 32.092-6.5304 35.857-20.922-15.809-0.11851-32.729 1.74-35.857-20.922 17.952 9.788 31.971-7.7803 41.844-20.922-14.083-0.23185-29.061 7.7667-41.844-14.273 15.864 0.86784 31.674 1.4516 41.844-27.571-11.403 3.905-33.33 0.15047-41.844-20.922 14.381 2.0762 28.874 5.8329 41.844-13.245-46.09-11.961-44.024-43.106-41.844-63.923z" fill-rule="evenodd" stroke="#000" stroke-width="4.1844"/>
<path d="m511.21 518.93c19.736-98.399-83.429-116.8-140.44-161.16-40.421-31.454-62.942-72.47-96.454-76.039" fill="none" stroke="#e20909" stroke-width="4.1844"/>
<path d="m338.9 282.82c34.044 23.426 57.966 33.697 94.637 33.102" fill="none" stroke="#e20909" stroke-width="4.1844"/>
</g>
<path d="m1.5 1.5v458.87c0 166.31 134.31 301.13 300 301.13 165.69 0 300-134.82 300-301.13v-458.87h-600z" fill="url(#a)"/>
<path d="m1.5 1.5v458.87c0 166.31 134.31 301.13 300 301.13 165.69 0 300-134.82 300-301.13v-458.87h-600z" fill="none" stroke="#000" stroke-width="3"/>
</g>
</svg>
